static/logos/appbot-glyph-color.svg

<svg width="50" height="44" viewBox="0 0 50 44" fill="none" xmlns="http://www.w3.org/2000/svg">
<g clip-path="url(#clip0_1_3516)">
<path fill-rule="evenodd" clip-rule="evenodd" d="M43.3475 30.2639V0.93669H31.4316C30.6589 0.93669 29.8952 1.79351 29.8952 2.55942V5.1526C29.8952 5.1526 26.7316 0.391235 16.3135 0.391235C10.0839 0.391235 4.85891 4.06169 2.1771 9.57306C-0.0319929 14.1253 -0.361539 19.3867 0.311189 24.3912C0.713461 27.3957 1.49073 30.3844 2.90209 33.0662C3.03164 33.3094 3.168 33.5503 3.30891 33.7889C7.69982 41.3094 19.0453 44.9957 26.7293 40.1594C27.843 39.4571 30.6157 37.5071 30.7566 36.0685C30.7566 36.0685 30.2634 40.573 35.6475 41.5457C41.7816 42.6548 49.1134 40.5685 49.1134 40.5685V31.6139C49.1134 31.6139 48.2407 32.0912 45.7361 32.0912C43.2293 32.0912 43.3475 30.2639 43.3475 30.2639ZM30.5361 28.5639C30.5361 29.6594 27.4725 30.8048 26.6793 31.0639C24.8202 31.6707 22.7248 31.7321 20.7975 31.473C18.943 31.223 17.0407 30.6776 15.593 29.5026C13.5703 27.8616 12.6316 25.2094 12.3748 22.6344C12.1544 20.4162 12.4271 18.0435 13.3998 16.0708C13.9044 15.0526 14.5885 14.139 15.4885 13.4117C17.3271 11.9253 19.9385 11.4049 22.3112 11.5571C23.2884 11.6208 30.5361 12.7367 30.5361 14.089V28.5639Z" fill="black"/>
</g>
<defs>
<clipPath id="clip0_1_3516">
<rect width="50" height="43.1818" fill="white"/>
</clipPath>
</defs>
</svg>

<svg xmlns="http://www.w3.org/2000/svg" width="72.727" height="64" fill="none" viewBox="0 0 50 44"><g clip-path="url(#a)"><path fill="#000" fill-rule="evenodd" d="M43.347 30.264V.937H31.432c-.773 0-1.537.857-1.537 1.622v2.594S26.732.39 16.314.39c-6.23 0-11.455 3.67-14.137 9.182C-.032 14.125-.362 19.387.311 24.391c.402 3.005 1.18 5.993 2.591 8.675.13.243.266.484.407.723 4.39 7.52 15.736 11.207 23.42 6.37 1.114-.702 3.887-2.652 4.028-4.09 0 0-.494 4.504 4.89 5.477 6.135 1.109 13.466-.977 13.466-.977v-8.955s-.872.477-3.377.477c-2.507 0-2.389-1.827-2.389-1.827Zm-12.81-1.7c0 1.095-3.064 2.24-3.858 2.5-1.859.607-3.954.668-5.881.409-1.855-.25-3.757-.795-5.205-1.97-2.023-1.641-2.961-4.294-3.218-6.869-.22-2.218.052-4.59 1.025-6.563.504-1.018 1.188-1.932 2.088-2.66 1.84-1.486 4.45-2.006 6.823-1.854.977.064 8.225 1.18 8.225 2.532v14.475Z" clip-rule="evenodd"/></g><defs><clipPath id="a"><path fill="#fff" d="M0 0h50v43.182H0z"/></clipPath></defs></svg>
